X: 107
T: Cocek Za merak
O: Serbia
M: 4/4
L: 1/8
K: Dm
Q:1/4 = 180
%%MIDI channel 1
%%MIDI program 64 % Soprano Sax
%%MIDI beat 97 87  77 4
%%MIDI ratio 2 1
%%MIDI drum dddd 41 60 50 35  90 90 90 90
%%MIDI drumon
FGA2 FGA2|D2DD D2D2|E2EE EFG2|D2DD D2D2|
FGA2 FGA2|D2DD D2D2|E2EE EFG2|D2DD D2D2::
CDEF GABc|cBAG FAGF|FAGF FEDC|D2DD D2D2|
CDEF GABc|cBAG FAGF|FAGF FEDC|D2DD D2D2::
zFGA AAAA|AAAA AAAA|G4   GGGG|F4   FFFF|
E4  DE^FG|GGGG GAGF|F4   FGFE|E4   EFED|D8:|



